X:65
T:Lady of the Lake
M:C
L:1/8
N:From Ken Kolodner, Journey to the Heartland, MM231
N:Transcribed by Bruce Thomson
K:G
|:â€Gâ€G,B,DG B2GB|dBGA B2AB|â€Câ€c2cB AGFG|â€Dâ€AGFE DCB,A,|
â€œGâ€G,B,DGB2GB|dBGA B2AB|â€Câ€cdcB AGFE|[1D â€œDâ€G2Fâ€Gâ€G2B,A,:|[2Dâ€Dâ€G2Fâ€Gâ€G2Bc||
|:â€Gâ€dcBd g2g2|â€Amâ€edcea2a2|â€Dâ€f2fg fedf|â€A7â€³ed^ceâ€Dâ€d2B=c|
â€œGâ€dcBdg2g2|â€Amâ€edcea2a2|â€Dâ€f2fe dcAF|[1Gâ€Gâ€BAFG2Bc:|[2Gâ€Gâ€BAFG2B,A,|]

